packages/react-icons/icons/eye-hidden.svg

<svg width="24" height="24" viewBox="0 0 24 24" xmlns="http://www.w3.org/2000/svg"><path fill-rule="evenodd" clip-rule="evenodd" d="M2.14652 12.3204C2.11113 12.2143 2.09663 12.1062 2.10079 12.0006C2.09663 11.895 2.11113 11.7869 2.14652 11.6807C2.90822 9.39539 5.92949 4.88867 12.0003 4.88867C18.0712 4.88867 21.0925 9.39539 21.8542 11.6807C21.8896 11.7869 21.9041 11.895 21.8999 12.0006C21.9041 12.1062 21.8896 12.2143 21.8542 12.3204C21.6642 12.8903 21.3338 13.5984 20.8505 14.3402C20.0054 13.3807 18.7676 12.7754 17.3884 12.7754C17.1679 12.7754 16.951 12.7909 16.7387 12.8208C16.7847 12.5539 16.8086 12.2795 16.8086 11.9995C16.8086 9.34407 14.6559 7.19141 12.0005 7.19141C9.34505 7.19141 7.19238 9.34407 7.19238 11.9995C7.19238 14.655 9.34505 16.8076 12.0005 16.8076C12.2805 16.8076 12.5549 16.7837 12.8218 16.7378C12.7919 16.95 12.7764 17.1669 12.7764 17.3875C12.7764 17.9784 12.8875 18.5433 13.09 19.0626C12.7383 19.0953 12.3751 19.1125 12.0003 19.1125C5.92949 19.1125 2.90822 14.6058 2.14652 12.3204ZM14.918 12.001C14.918 13.6125 13.6115 14.9189 12 14.9189C10.3885 14.9189 9.08203 13.6125 9.08203 12.001C9.08203 10.3894 10.3885 9.08301 12 9.08301C13.6115 9.08301 14.918 10.3894 14.918 12.001ZM14.8896 14.8896C15.2411 14.5381 15.8109 14.5381 16.1624 14.8896L17.4998 16.227L18.8373 14.8896C19.1888 14.5381 19.7586 14.5381 20.1101 14.8896C20.4616 15.2411 20.4616 15.8109 20.1101 16.1624L18.7726 17.4998L20.1101 18.8373C20.4615 19.1887 20.4615 19.7586 20.1101 20.1101C19.7586 20.4615 19.1887 20.4615 18.8373 20.1101L17.4998 18.7726L16.1624 20.1101C15.8109 20.4615 15.2411 20.4615 14.8896 20.1101C14.5381 19.7586 14.5381 19.1887 14.8896 18.8373L16.227 17.4998L14.8896 16.1624C14.5381 15.8109 14.5381 15.2411 14.8896 14.8896Z"/></svg>

<svg xmlns="http://www.w3.org/2000/svg" width="24" height="24"><path fill-rule="evenodd" d="M2.147 12.32A.897.897 0 0 1 2.1 12a.898.898 0 0 1 .046-.32C2.908 9.396 5.929 4.89 12 4.89s9.093 4.506 9.854 6.792c.036.106.05.214.046.32a.896.896 0 0 1-.046.32c-.19.57-.52 1.277-1.003 2.02a4.6 4.6 0 0 0-4.112-1.52 4.808 4.808 0 1 0-3.917 3.917 4.654 4.654 0 0 0 .268 2.325c-.352.032-.715.05-1.09.05-6.07 0-9.092-4.507-9.853-6.793Zm12.771-.319a2.918 2.918 0 1 1-5.836 0 2.918 2.918 0 0 1 5.836 0Zm-.028 2.889a.9.9 0 0 1 1.272 0l1.338 1.337 1.337-1.337a.9.9 0 1 1 1.273 1.272L18.773 17.5l1.337 1.337a.9.9 0 0 1-1.273 1.273L17.5 18.773l-1.338 1.337a.9.9 0 0 1-1.272-1.273l1.337-1.337-1.337-1.338a.9.9 0 0 1 0-1.272Z" clip-rule="evenodd"/></svg>
